X: 8
M: 6/8
L: 1/8
K: G
|: d |\
g2g aga | b2g g2d | ded dcB | A2D D2d |\
g2g aga | b2g g2e | dcB AGF | G2G G2 :|
|: b | !p!\
bab c'2b | aga b2a | gfg a2g | f2B B2b |\
bab c'2b | aga b2a | gfe fe^d | e2e e2 :|
|: g |\
g2d ded | b2g g2d | ded dcB | AFD D2d |\
g2d ded | b2g g2e | dBd cBA | G2G G2 :|
|: d |\


